X: 24916
T: Maid At The Well, The
R: jig
M: 6/8
K: Gmajor
|:G2 D EDE|GAB c2 d|edc B2 A|BGE EDE|
G2 D EDE|GAB c2 d|edc B2 A|BGF G3:|
|:g2 d ede|gdB c2 d|edc B2 A|BGE EDE|
[1 g2 d ede|gdB c2 d|edc B2 A|BGF G3:|
[2 G2 D EDE|GAB c2 d|edc B2 A|BGF G3||

